X: 15709
T: Golden Keyboard, The
R: reel
M: 4/4
K: Edorian
|:"Em"G3F EFGA|B2gB fBe2|"Em"G3F EFGE|"D"(3FED AD BDAF|
"Em"G3F EFGA|B2gB fBe2|"Am"BABc "B7"BAGF|"Em"G2E2 E4:|
|:"Em"Beee Beee|Beee f2e2|"D"d2A2e2A2|f3e defd|
"Em (C)" G3F EFGA|B2gB fBe2|"Am"BABc "B7"BAGF|"Em"G2E2 E4:|

